!!!OTL: 50a. Die Mordeltern.
!!!ODT: 1876
!!!ARE: Europa, Mitteleuropa, Deutschland, Trier
!!!SCT: E0050C
!!!TXL: @@DE
!!!YEM: Copyright 1995, estate of Helmut Schaffrath.
**kern	**text
*ICvox	*
*M3/4	*
*k[f#]	*
*G:	*
!LO:TX:a:t=Ruhig.	!
!LO:TX:a:t=Umgegend v. Trier. 1876.	!
{8d	Es
=1	=1
8d	war'n
8d	ein-
4g	-mal
4b	ʒwei
=2	=2
8a	Bau-
8g	-ern-
4a	-ſöhn,
8r}	.
{8d	die
=3	=3
8d	hat-
8d	-ten
4a	Luſt
4cc	in
=4	=4
8b	Krieg
8ee	ʒu
4dd	gehn,
8r}	.
{8cc	wol
=5	=5
8b	ins
8cc	Sol-
4dd	-da-
4cc	-ten-
=6	=6
8bL	-le-
8ddJ	.
4dd	-ben,
8r}	.
{8g	wol
=7	=7
8g	ins
8g	Sol-
4cc	-da-
4b	-ten-
=8	=8
8aL	-le-
8f#J	.
4g	-ben.
8r}	.
==	==
!!!AGN: erzaehlendes Volks - Lied, Sage, Mord, Ballade ?
!!!ONB: ESAC (Essen Associative Code) Database: ERK1
!!!AMT: simple triple
!!!AIN: vox
!!!EED: Helmut Schaffrath
!!!EEV: 1.0
!!!GTL: Sagen von Mordthaten, unschuldig Gesangeg und Hinrichtungen
!!!URL-scan: https://rosdok.uni-rostock.de/mcrviewer/recordIdentifier/rosdok_ppn745146120/iview2/phys_0237.iview2?x=-250.1417780126858&y=1203.055989475688&scale=0.5392104374602399&rotation=0&layout=singlePageLayout&logicalDiv=log_0009
!!!ENC: Anna Maria Matuszewska
!!!EEV: 2024/11/25
*-	*-
